public/assets/icons/menu-light.svg

<svg xmlns="http://www.w3.org/2000/svg" width="24" height="17" fill="none" viewBox="0 0 24 17"><path fill="#000" d="M0 0.967422H24V3.63409H0V0.967422ZM0 7.63409H24V10.3008H0V7.63409ZM0 14.3008H24V16.9674H0V14.3008Z"/></svg>

<svg fill="none" viewBox="0 0 24 17"><path fill="#000" d="M0 .967h24v2.667H0V.967zm0 6.667h24v2.667H0V7.634zm0 6.667h24v2.666H0v-2.666z"/></svg>
